X:1
T:Murfreesboro, 87.87 D
T:Murfreesboro, 87.87 D
T:Reginald Geoffrey, 1892
T:Public Domain Courtesy of the Cyber Hymnal™
C:Reginald Geoffrey, 1892
Z:Public Domain
Z:Courtesy of the Cyber Hymnal™
%%score ( 1 2 ) ( 3 4 )
L:1/8
Q:1/4=108
M:4/4
K:D
V:1 treble 
V:2 treble 
V:3 bass 
V:4 bass 
V:1
!p! [DF]3 [FA] [Fd]2 [Fd]2 | [Gc]3 [Gd] [Gc]2 [GB]2 | [Fd]2 (cB) [FA]2 [DF]2 | [EA]3 [EG] [DF]4 x | %4
 [DF]3 [EA] [Dd]2 [Fd]2 | [Ec]3 [Ed] [Ec]2 [DB]2 | [FA]2 [FA]2 [EA]2 [EA]2 | %7
!p! [EA]2 [D^G]2 [CA]4 | [CB]2 [CA]2 [CE]2 [CA]2 | [DB]2 [DA]2 [^E^G]2 [FA]2 | %10
 [GB]2 [EA]2 [CE]2 [CA]2 | [DB]2 [^E^G]2 [FA]4 |!f! [F^A]3 [FA] [Fd]2 [Fc]2 | %13
 [Gc]2 [GB]2 [=Fc]2 [FB]2 |!ff!"^riten." [FB]2 [^DF]2 [DA]2 [EG]2 | [CF]3 [CE] D4 |] %16
V:2
 x8 | x8 | x2 G2 x4 | x9 | x8 | x8 | x8 | x8 | x8 | x8 | x8 | x8 | x8 | x8 | x8 | x4 D4 |] %16
V:3
 [D,A,]3 [D,A,] [D,A,]2 [D,A,]2 | [D,B,]3 [D,B,] [D,B,]2 [D,B,]2 | [D,A,]2 [D,B,]2 [D,D]2 [D,A,]2 | %3
 C3 z A, [D,A,]4 | [D,A,]3 [C,A,] [B,,F,]2 [D,B,]2 | [F,^A,]3 [F,A,] [F,A,]2 [G,B,]2 | %6
 [^D,=C]2 [D,C]2 [E,^C]2 [E,C]2 | [E,B,]2 [E,B,]2 [A,,A,]4 | [A,,G,]2 [A,,G,]2 [A,,G,]2 [A,,G,]2 | %9
 [D,F,]2 [D,F,]2 [D,B,]2 [D,D]2 | [A,,C]2 [A,,C]2 [A,,A,]2 [A,,G,]2 | [D,F,]2 [D,B,]2 [D,A,]4 | %12
 [D,E]3 [D,E] [D,E]2 [D,E]2 | [G,E]2 [G,D]2 [^G,D]2 [G,D]2 | [A,^D]2 [A,B,]2 [F,=C]2 [G,B,]2 | %15
 [A,,A,]3 [A,,G,] [D,F,]4 |] %16
V:4
 x8 | x8 | x8 | A,,2 A,,2 x5 | x8 | x8 | x8 | x8 | x8 | x8 | x8 | x8 | x8 | x8 | x8 | x8 |] %16

